common/assets/images/wallets/metamask.svg

<svg height="331" viewBox="0 0 317 331" width="317" xmlns="http://www.w3.org/2000/svg"><g fill="none"><path d="m300 229-19.236515 65-37.763485-10.321212z" fill="#bbb" stroke="#bbb"/><path d="m243 284 36.423237-50.165706 20.576763-4.834294z" fill="#bbb" stroke="#bbb"/><path d="m272 179.716489 28 49.43535-20.356546 4.848161zm0 0 18.016713-12.716489 9.983287 62.151839z" fill="#ddd"/><g stroke="#000"><path d="m249 142.560976 52-21.560976-2.584337 11.810976zm47.771084 4.439024-47.771084-4.439024 49.415663-9.75z" fill="#000"/><path d="m296.851563 146.862549-6.162465 20.137451-41.689098-24.501718zm10.042111-20.883168-8.893674 6.797251 2.620458-11.776632zm-10.893674 21.168385 1.667564-14.147766 7.067295 5.848797z" fill="#000"/><path d="m290.501771 167 6.249114-20.478271 6.249115 5.149239zm.490661.10791-55.199707-18.124512 13.185058-7.429199z" fill="#000"/><path d="m261.963379 80.3129883-12.963379 62.1394477-13 6.547564z" fill="#000"/><path d="m301 121.351733-52.632812 21.870435 13.257324-62.7104492z" fill="#000"/><path d="m262 81.2691652 55-6.2691652-16.001953 46.375z" fill="#000"/></g><path d="m290.681641 166.88501-18.78614 13.11499-36.597894-31.319336z" fill="#ddd"/><path d="m313.882812 31.1132812 3.117188 44.0527344-55.251953 6.3930664z" fill="#000" stroke="#000"/><path d="m314 31-109.473877 80.583008-1.526123-54.8431867z" fill="#bbb" stroke="#bbb"/><path d="m122 50 81.574427 6.4313725 1.539587 54.3728265z" fill="#ddd"/><path d="m236.105263 149-31.105263-39.12761 57-28.87239z" fill="#000" stroke="#000"/><path d="m235.673406 149 37.028742 31.192871-51.99707 5.354004z" fill="#bbb" stroke="#bbb"/><path d="m220.5 186.560059-15.5-76.560059 31 38.993711z" fill="#bbb" stroke="#bbb"/><path d="m261.821661 81.9235353-56.821661 29.0764647 109-80z" fill="#000" stroke="#000"/><path d="m122.280899 283.05679 25.719101 26.94321-35-32z" fill="#c0ad9e"/><path d="m243 284 12.077922-46.524487 24.47408-3.458667z" fill="#999" stroke="#999"/><path d="m18 153 45-47-39.1961131 41.391597z" fill="#e2761b"/><path d="m279.638916 234.052734-24.746582 3.739258 17.357916-57.339781zm-74.764041-123.496945-43.572573-1.424842-39.302302-59.130947z" fill="#ddd"/><path d="m272.860352 178.466309-17.824463 59.936767-1.605225-29.201538z" fill="#aaa" stroke="#aaa"/><path d="m221 185.534946 51-5.534946-17.92535 29z" fill="#999" stroke="#999"/><path d="m161 109 44.040527.762451 15.959473 76.237549z" fill="#ddd"/><path d="m162.666504 110.812012-118.7885743-110.812012 78.8085933 49.7369804zm-40.061035 188.071777-102.1972659 32.116211-20.4082031-78.772461z" fill="#bbb" stroke="#bbb"/><path d="m33 172 38.6265329-30 32.3734671 7.441253z" fill="#000" stroke="#000"/><path d="m104 150-32-7.512513 17.1344743-71.487487z" fill="#000" stroke="#000"/><path d="m24 147.169713 48-5.169713-38.5897858 30z" fill="#000" stroke="#000"/><path d="m254 209-19.942446-10.126246-13.057554-13.873754z" fill="#999" stroke="#999"/><path d="m24.0253906 147.559082-4.2890625-19.928955 52.8867188 14.405029z" fill="#000" stroke="#000"/><path d="m229.504639 222.02832 4.38623-23.409424 20.12793 10.323975z" fill="#000"/><path d="m255 237-25-15.459155 23.676012-12.540845z" fill="#ddd"/><path d="m72.0783081 142.372253-51.8948568-12.616497-4.1834513-15.104104zm17.367981-71.742126-17.3741455 71.763428-56.0721436-27.741903zm-.4462891.369873 72 38.037037-57.226456 40.962963z" fill="#000" stroke="#000"/><path d="m102.939453 149.790527 58.507324-41.671875 25.553223 78.881348zm84.060547 37.209473-79.785645-2.01123-3.908203-35.155762z" fill="#bbb" stroke="#bbb"/><path d="m32.0712891 171.77832 71.8452149-22.475097 3.510028 36.037203zm188.9287109 14.03627-34.490344 1.18541-25.492863-78z" fill="#ddd"/><path d="m234 198.617391-4.09697 22.382609-8.90303-36z" fill="#999" stroke="#999"/><path d="m44 0 117 109-72.302002-37.7990723z" fill="#000" stroke="#000"/><path d="m0 252.468262 98.902832-4.780762 24.019043 51.744141z" fill="#bbb" stroke="#bbb"/><path d="m122.545455 299-23.545455-50.616192 49-2.383808z" fill="#999" stroke="#999"/><path d="m230.672711 221.514124 25.349518 15.502825 9.308093 30.519672zm-122.562152-36.858757-108.110559 67.943503 33.6414156-80.59887zm-9.0816032 63.830509-99.0289558 4.112994 108.110559-67.943503zm122.7200932-63.355932 6.580053 24.221618-32.127442 1.838135zm-25.606227 26.180359-8.903863-24.993919 34.51009-1.18644z" fill="#bbb" stroke="#bbb"/><path d="m148.453925 309.720812-26.453925-10.720812 92 16z" fill="#fbfbfb"/><path d="m33.5405273 171.776367-15.5405273-19.176998 6.121582-6.08057z" fill="#000" stroke="#000"/><path d="m225.334473 302.741699-10.885743 12.975098-92.44873-16.716797z" fill="#fff"/><path d="m230.497559 275.182129-108.497559 23.817871 25.263158-53z" fill="#bbb" stroke="#bbb"/><path d="m122 299.011173 102.425587-22.771838 5.574413-1.239335-4.973684 28z" fill="#fff"/><path d="m16.5367115 114.898062-3.4248951-61.2100737 76.6743164 17.1274414zm7.6361401 32.258676-10.5441029-9.847555 7.073423-7.285594z" fill="#000" stroke="#000"/><path d="m169 202.545455 17.879395-16.601607-2.450824 39.056152z" fill="#999" stroke="#999"/><path d="m186 187-16.607178 16.094971-26.392822 12.905029z" fill="#999" stroke="#999"/><path d="m264.222892 266.476346-34.222892-44.476346z" fill="#bbb" stroke="#bbb"/><path d="m143.636727 216-35.636727-31 79 1.677835z" fill="#999" stroke="#999"/><path d="m184 225 2.960205-39.374268 9.342774 25.484131z" fill="#aaa" stroke="#aaa"/><path d="m10 119.968586 6.6492537-5.968586 4.3507463 15z" fill="#000" stroke="#000"/><path d="m185.06543 225.883789-42.587647-9.848144 26.325306-14.035645z" fill="#000"/><path d="m89 71-76-17.2145251 31.0444674-53.7854749z" fill="#000" stroke="#000"/><path d="m214.661621 314.608398 4.661621 12.239258-71.17334-17.509277z" fill="#fbfbfb"/><path d="m146.878378 247-3.878378-31 41 9.323907z" fill="#ddd"/><path d="m108 185 36.087824 30.460746 3.198797 30.968453z" fill="#aaa" stroke="#aaa"/><path d="m196.127808 211.066406 31.948238-1.958089 36.923954 57.891683zm-88.054614-26.066406 39.527566 61.618956-48.8556428 1.9787z" fill="#ddd"/><path d="m196.217929 211 38.782071 59-51.592773-44.90625z" fill="#aaa" stroke="#aaa"/><path d="m183.709229 224.863281 51.777587 45.142578-6.52832 5.543457z" fill="#bbb" stroke="#bbb"/><path d="m229.403226 275-82.403226-28.444444 36.877016-21.491358zm35.662021-7.961548-30.054505 3.340332-39.855469-61.039429z" fill="#ddd"/><path d="m272.00824 294.410675-12.651292 25.952288-41.010899 6.637037zm-52.45105 32.87204-5.55719-12.134567 11.11438-12.2043z" fill="#fbfbfb"/><path d="m225.051514 302.968872 7.75769-3.070435-13.809204 27.101563zm-6.051514 24.031128 13.710693-27.149536 39.320984-5.434876z" fill="#fbfbfb"/><path d="m265.13369 267 9.84922 5.750488-29.98291 3.249512z" fill="#000"/><path d="m244.534709 276.545455-9.534709-6.204546 30.137085-3.291471zm-3.388368 4.693181 35.853659-4.375-4.963867 17.610485z" fill="#000"/><path d="m272.066265 294.415274-39.391566 5.513127 8.692771-19.138425zm-39.207622 5.441049-7.858643 3.143677 4.64389-28.003265zm-3.212021-24.8647 5.612414-4.991623 9.475904 6.143198zm45.173568-2.37944 2.189209 4.28302-36.517578 4.459777z" fill="#000"/><path d="m241.280029 281.16687 2.987061-5.354004 30.609131-3.162964zm-11.638275-6.179932 11.768548 6.105281-8.674956 18.907781z" fill="#000"/><path d="m244.553223 276.001831-3.206665 5.344727-11.693268-6.350068z" fill="#000"/></g></svg>

<?xml version="1.0" encoding="UTF-8"?>
<svg width="317px" height="331px" viewBox="0 0 317 331" version="1.1" xmlns="http://www.w3.org/2000/svg" xmlns:xlink="http://www.w3.org/1999/xlink">
    <!-- Generator: Sketch 48.1 (47250) - http://www.bohemiancoding.com/sketch -->
    <title>metamask</title>
    <desc>Created with Sketch.</desc>
    <defs></defs>
    <g id="Page-1" stroke="none" stroke-width="1" fill="none" fill-rule="evenodd">
        <g id="metamask" fill-rule="nonzero">
            <g id="Shape">
                <polygon stroke="#BBBBBB" fill="#BBBBBB" points="300 229 280.763485 294 243 283.678788"></polygon>
                <polygon stroke="#BBBBBB" fill="#BBBBBB" points="243 284 279.423237 233.834294 300 229"></polygon>
                <path d="M272,179.716489 L300,229.151839 L279.643454,234 L272,179.716489 Z M272,179.716489 L290.016713,167 L300,229.151839 L272,179.716489 Z" fill="#DDDDDD"></path>
                <path d="M249,142.560976 L301,121 L298.415663,132.810976 L249,142.560976 Z M296.771084,147 L249,142.560976 L298.415663,132.810976 L296.771084,147 Z" stroke="#000000" fill="#000000"></path>
                <path d="M296.851563,146.862549 L290.689098,167 L249,142.498282 L296.851563,146.862549 Z M306.893674,125.979381 L298,132.776632 L300.620458,121 L306.893674,125.979381 Z M296,147.147766 L297.667564,133 L304.734859,138.848797 L296,147.147766 Z" stroke="#000000" fill="#000000"></path>
                <path d="M290.501771,167 L296.750885,146.521729 L303,151.670968 L290.501771,167 Z M290.992432,167.10791 L235.792725,148.983398 L248.977783,141.554199 L290.992432,167.10791 Z" stroke="#000000" fill="#000000"></path>
                <polygon stroke="#000000" fill="#000000" points="261.963379 80.3129883 249 142.452436 236 149"></polygon>
                <polygon stroke="#000000" fill="#000000" points="301 121.351733 248.367188 143.222168 261.624512 80.5117188"></polygon>
                <polygon stroke="#000000" fill="#000000" points="262 81.2691652 317 75 300.998047 121.375"></polygon>
                <polygon fill="#DDDDDD" points="290.681641 166.88501 271.895501 180 235.297607 148.680664"></polygon>
                <polygon stroke="#000000" fill="#000000" points="313.882812 31.1132812 317 75.1660156 261.748047 81.559082"></polygon>
                <polygon stroke="#BBBBBB" fill="#BBBBBB" points="314 31 204.526123 111.583008 203 56.7398213"></polygon>
                <polygon fill="#DDDDDD" points="122 50 203.574427 56.4313725 205.114014 110.804199"></polygon>
                <polygon stroke="#000000" fill="#000000" points="236.105263 149 205 109.87239 262 81"></polygon>
                <polygon stroke="#BBBBBB" fill="#BBBBBB" points="235.673406 149 272.702148 180.192871 220.705078 185.546875"></polygon>
                <polygon stroke="#BBBBBB" fill="#BBBBBB" points="220.5 186.560059 205 110 236 148.993711"></polygon>
                <polygon stroke="#000000" fill="#000000" points="261.821661 81.9235353 205 111 314 31"></polygon>
                <polygon fill="#C0AD9E" points="122.280899 283.05679 148 310 113 278"></polygon>
                <polygon stroke="#999999" fill="#999999" points="243 284 255.077922 237.475513 279.552002 234.016846"></polygon>
                <polygon fill="#E2761B" points="18 153 63 106 23.8038869 147.391597"></polygon>
                <path d="M279.638916,234.052734 L254.892334,237.791992 L272.25025,180.452211 L279.638916,234.052734 Z M204.874875,110.555789 L161.302302,109.130947 L122,50 L204.874875,110.555789 Z" fill="#DDDDDD"></path>
                <polygon stroke="#AAAAAA" fill="#AAAAAA" points="272.860352 178.466309 255.035889 238.403076 253.430664 209.201538"></polygon>
                <polygon stroke="#999999" fill="#999999" points="221 185.534946 272 180 254.07465 209"></polygon>
                <polygon fill="#DDDDDD" points="161 109 205.040527 109.762451 221 186"></polygon>
                <path d="M162.666504,110.812012 L43.8779297,0 L122.686523,49.7369804 L162.666504,110.812012 Z M122.605469,298.883789 L20.4082031,331 L0,252.227539 L122.605469,298.883789 Z" stroke="#BBBBBB" fill="#BBBBBB"></path>
                <polygon stroke="#000000" fill="#000000" points="33 172 71.6265329 142 104 149.441253"></polygon>
                <polygon stroke="#000000" fill="#000000" points="104 150 72 142.487487 89.1344743 71"></polygon>
                <polygon stroke="#000000" fill="#000000" points="24 147.169713 72 142 33.4102142 172"></polygon>
                <polygon stroke="#999999" fill="#999999" points="254 209 234.057554 198.873754 221 185"></polygon>
                <polygon stroke="#000000" fill="#000000" points="24.0253906 147.559082 19.7363281 127.630127 72.6230469 142.035156"></polygon>
                <polygon fill="#000000" points="229.504639 222.02832 233.890869 198.618896 254.018799 208.942871"></polygon>
                <polygon fill="#DDDDDD" points="255 237 230 221.540845 253.676012 209"></polygon>
                <path d="M72.0783081,142.372253 L20.1834513,129.755756 L16,114.651652 L72.0783081,142.372253 Z M89.4462891,70.630127 L72.0721436,142.393555 L16,114.651652 L89.4462891,70.630127 Z M89,71 L161,109.037037 L103.773544,150 L89,71 Z" stroke="#000000" fill="#000000"></path>
                <path d="M102.939453,149.790527 L161.446777,108.118652 L187,187 L102.939453,149.790527 Z M187,187 L107.214355,184.98877 L103.306152,149.833008 L187,187 Z" stroke="#BBBBBB" fill="#BBBBBB"></path>
                <path d="M32.0712891,171.77832 L103.916504,149.303223 L107.426532,185.340426 L32.0712891,171.77832 Z M221,185.81459 L186.509656,187 L161.016793,109 L221,185.81459 Z" fill="#DDDDDD"></path>
                <polygon stroke="#999999" fill="#999999" points="234 198.617391 229.90303 221 221 185"></polygon>
                <polygon stroke="#000000" fill="#000000" points="44 0 161 109 88.697998 71.2009277"></polygon>
                <polygon stroke="#BBBBBB" fill="#BBBBBB" points="0 252.468262 98.902832 247.6875 122.921875 299.431641"></polygon>
                <polygon stroke="#999999" fill="#999999" points="122.545455 299 99 248.383808 148 246"></polygon>
                <path d="M230.672711,221.514124 L256.022229,237.016949 L265.330322,267.536621 L230.672711,221.514124 Z M108.110559,184.655367 L0,252.59887 L33.6414156,172 L108.110559,184.655367 Z M99.0289558,248.485876 L0,252.59887 L108.110559,184.655367 L99.0289558,248.485876 Z M221.749049,185.129944 L228.329102,209.351562 L196.20166,211.189697 L221.749049,185.129944 Z M196.142822,211.310303 L187.238959,186.316384 L221.749049,185.129944 L196.142822,211.310303 Z" stroke="#BBBBBB" fill="#BBBBBB"></path>
                <polygon fill="#FBFBFB" points="148.453925 309.720812 122 299 214 315"></polygon>
                <polygon stroke="#000000" fill="#000000" points="33.5405273 171.776367 18 152.599369 24.121582 146.518799"></polygon>
                <polygon fill="#FFFFFF" points="225.334473 302.741699 214.44873 315.716797 122 299"></polygon>
                <polygon stroke="#BBBBBB" fill="#BBBBBB" points="230.497559 275.182129 122 299 147.263158 246"></polygon>
                <polygon fill="#FFFFFF" points="122 299.011173 224.425587 276.239335 230 275 225.026316 303"></polygon>
                <path d="M16.5367115,114.898062 L13.1118164,53.6879883 L89.7861328,70.8154297 L16.5367115,114.898062 Z M24.1728516,147.156738 L13.6287487,137.309183 L20.7021717,130.023589 L24.1728516,147.156738 Z" stroke="#000000" fill="#000000"></path>
                <polygon stroke="#999999" fill="#999999" points="169 202.545455 186.879395 185.943848 184.428571 225"></polygon>
                <polygon stroke="#999999" fill="#999999" points="186 187 169.392822 203.094971 143 216"></polygon>
                <path d="M264.222892,266.476346 L230,222 L264.222892,266.476346 Z" stroke="#BBBBBB" fill="#BBBBBB"></path>
                <polygon stroke="#999999" fill="#999999" points="143.636727 216 108 185 187 186.677835"></polygon>
                <polygon stroke="#AAAAAA" fill="#AAAAAA" points="184 225 186.960205 185.625732 196.302979 211.109863"></polygon>
                <polygon stroke="#000000" fill="#000000" points="10 119.968586 16.6492537 114 21 129"></polygon>
                <polygon fill="#000000" points="185.06543 225.883789 142.477783 216.035645 168.803089 202"></polygon>
                <polygon stroke="#000000" fill="#000000" points="89 71 13 53.7854749 44.0444674 0"></polygon>
                <polygon fill="#FBFBFB" points="214.661621 314.608398 219.323242 326.847656 148.149902 309.338379"></polygon>
                <polygon fill="#DDDDDD" points="146.878378 247 143 216 184 225.323907"></polygon>
                <polygon stroke="#AAAAAA" fill="#AAAAAA" points="108 185 144.087824 215.460746 147.286621 246.429199"></polygon>
                <path d="M196.127808,211.066406 L228.076046,209.108317 L265,267 L196.127808,211.066406 Z M108.073194,185 L147.60076,246.618956 L98.7451172,248.597656 L108.073194,185 Z" fill="#DDDDDD"></path>
                <polygon stroke="#AAAAAA" fill="#AAAAAA" points="196.217929 211 235 270 183.407227 225.09375"></polygon>
                <polygon stroke="#BBBBBB" fill="#BBBBBB" points="183.709229 224.863281 235.486816 270.005859 228.958496 275.549316"></polygon>
                <path d="M229.403226,275 L147,246.555556 L183.877016,225.064198 L229.403226,275 Z M265.065247,267.038452 L235.010742,270.378784 L195.155273,209.339355 L265.065247,267.038452 Z" fill="#DDDDDD"></path>
                <path d="M272.00824,294.410675 L259.356948,320.362963 L218.346049,327 L272.00824,294.410675 Z M219.55719,327.282715 L214,315.148148 L225.11438,302.943848 L219.55719,327.282715 Z" fill="#FBFBFB"></path>
                <path d="M225.051514,302.968872 L232.809204,299.898437 L219,327 L225.051514,302.968872 Z M219,327 L232.710693,299.850464 L272.031677,294.415588 L219,327 Z" fill="#FBFBFB"></path>
                <polygon fill="#000000" points="265.13369 267 274.98291 272.750488 245 276"></polygon>
                <path d="M244.534709,276.545455 L235,270.340909 L265.137085,267.049438 L244.534709,276.545455 Z M241.146341,281.238636 L277,276.863636 L272.036133,294.474121 L241.146341,281.238636 Z" fill="#000000"></path>
                <path d="M272.066265,294.415274 L232.674699,299.928401 L241.36747,280.789976 L272.066265,294.415274 Z M232.858643,299.856323 L225,303 L229.64389,274.996735 L232.858643,299.856323 Z M229.646622,274.991623 L235.259036,270 L244.73494,276.143198 L229.646622,274.991623 Z M274.82019,272.612183 L277.009399,276.895203 L240.491821,281.35498 L274.82019,272.612183 Z" fill="#000000"></path>
                <path d="M241.280029,281.16687 L244.26709,275.812866 L274.876221,272.649902 L241.280029,281.16687 Z M229.641754,274.986938 L241.410302,281.092219 L232.735346,300 L229.641754,274.986938 Z" fill="#000000"></path>
                <polygon fill="#000000" points="244.553223 276.001831 241.346558 281.346558 229.65329 274.99649"></polygon>
            </g>
        </g>
    </g>
</svg>
